X:1
T:James Gibb editions
T:Rejoice, the Lord is King - Barnby
%%score [ ( 1 2 ) ( 3 4 5 ) ]
L:1/8
Q:1/4=96
M:4/4
K:D
V:1 treble nm="Midi_74"
V:2 treble 
V:3 bass nm="Midi_74"
V:4 bass 
V:5 bass 
V:1
"^Rejoice (66. 66. 88)""^Joseph Barnby\n(1838-96)""^Rejoice, the Lord is King""^Charles Wesley\n(1707-88)" A2 | %1
 d2 c2 d2 e2 | (A4 B2) || c2 | d2 A2 F2 ED | D6 || D2 | G2 F2 B2 A2 | d2 || c2 B2 F2 | %10
[M:4/4] A4 B4 | A6 || A2 | e2 d2 e2 A2 | e3 d e2 || A2 | f2 z e d2 e2 | (A2 B2) c4 | d6 || d4 d4 |] %20
V:2
 A2 | F2 G2 A2 GF | (E4 A2) || A2 | A2 D2 D2 C2 | D6 || D2 | D2 D2 D2 E2 | A2 || A2 F2 F2 | %10
[M:4/4] E4 ^G4 | A6 || A2 | A2 A2 A2 F2 | G3 G G2 || A2 | F2 z G A2 GF | (E2 F2) G4 | F6 || %19
 G4 F4 |] %20
V:3
 A,2 | A,2 A,2 D2 B,2 | (C4 D2) || E2 | D2 D2 A,2 G,2 | F,6 || F,2 | G,2 A,2 B,2 C2 | D2 || %9
 E2 F2 D2 | %10
[M:4/4] C4"^1. Rejoice, the Lord is King!\nYour Lord and King adore, \nMortals, give thanks, and sing, \nAnd triumph evermore; \nLift up your heart, lift up your voice, \nRejoice, again, I say, rejoice. \n\n2. Jesus the Saviour reigns, \nThe God of truth and love, \nWhen He had purg'd our stains, \nHe took his seat above: \nLift up your heart, lift up your voice, \nRejoice, again, I say, rejoice. \n\n3. His Kingdom cannot fail, \nHe rules o'er earth and heaven;\nThe keys of death and hell \nAre to our Jesus given: \nLift up your heart, lift up your voice, \nRejoice, again, I say, rejoice." D4 | %11
 C6 || A,2 | C2 B,2 C2 D2 | C3 B, C2 || A,2 | %16
"^4. He sits at God's right hand, \nTill all his foes submit, \nAnd bow to his command, \nAnd fall beneath his feet. \nLift up your heart, lift up your voice, \nRejoice, again, I say, rejoice. \n\n5. He all his foes shall quell, \nShall all our sins destroy, \nAnd every bosom swell \nWith pure seraphic joy; \nLift up your heart, lift up your voice, \nRejoice, again, I say, rejoice. \n\n6. Rejoice in glorious hope, \nJesus the Judge shall come; \nAnd take his servants up \nTo their eternal home: \nWe soon shall hear th'Archangel's voice, \nThe trump of God shall sound, rejoice." A,2 z C D2 B,2 | %17
 (C2 D2) E4 | D6 || B,4 A,4 |] %20
V:4
 A,2 | D,2- E,2 F,2 G,2 | A,6 || G,2 | F,2 F,G, A,2 A,,2 | D,6 || D,2 | B,,2 D,2 G,,2 G,2 | F,2 || %9
 E,2 D,2 B,,2 |[M:4/4] E,4 E,4 | A,6 || A,2 | A,2 A,2 A,2 D2 | C3 B, C2 || A,2 | D,2 z E, F,2 G,2 | %17
 A,4 A,4 | D,6 || G,4 D,4 |] %20
V:5
 x2 | x8 | x6 || x2 | x8 | x6 || x2 | x8 | x2 || x6 |[M:4/4] x4 x4 | x6 || A,,2- | A,,8 | A,,6 || %15
 x2 | x8 | x8 | x6 || x8 |] %20

